X: 1
T: I'm Not Fed Up With The Pacific Ocean
C: Ola Bäckström (arr for NSP by Tim Pillinger)
S: 
R: reel
M: 4/4
L: 1/8
K: Gmaj
A2 | B3B- BGAc | B3B- BGAc | B2AB G2FG | E3E- E2D2 |
B3B- BGAc | B3B- BGAc | B2AG FG AF | G3G- G2 :|
|: G2 | d2cB AGFG | g2fg edcB | d2cB AGFG | E3E- E2D2 |
d2cB AGFG | g2fg edcB | d2cB AGFA | G3G- G2 :|
K: Dmaj
|: A2 | f3f- ffeg | f2ef d2cd | B3B- B2c2 | B3B- BAGF |
f3f- ffeg | f2ed cdec | d3d- d2e2 | d3d- d2 :| 
